source/icons/audio-spectrum.svg

<svg xmlns="http://www.w3.org/2000/svg" width="8" height="8" viewBox="0 0 8 8">
  <path d="M4 0v8h1v-8h-1zm-2 1v6h1v-6h-1zm4 1v4h1v-4h-1zm-6 1v2h1v-2h-1z" />
</svg>

<svg xmlns="http://www.w3.org/2000/svg" width="8" height="8" viewBox="0 0 8 8"><path d="M4 0v8h1V0H4zM2 1v6h1V1H2zm4 1v4h1V2H6zM0 3v2h1V3H0z"/></svg>
